X: 5
M:2/4
L:1/16
K:A
edcB|A2(3cBA eA(3cBA|eAaA gAfA|eA(3cBA eAfA|BEcE dEBE|
E2(3GFE BE(3GFE|BEdE cEBE|A2(3cBA eA(3cBA|eAaA gAfA|
efec agaf|efec agaf|ecag fedc|BAGF EFGE||

